X:385
T: Follow me Down to Carlow
T: Lean go Ceatharlach s\'ios m\'e
S: B.Breathnach: "Ceol Rince na hEireann" II/84
Z: B.Black
N: Presence of C sharp is unusual.
L: 1/8
M: 12/8
R: slide
Q: 375
K: Ador
A^cA A2G E2F G3|A^cA A2B =c2d e2d|
cBA BAG E2F G3|1 A3 B2G A3 A3 :|2\
A^cA B2G A3 A3||
e2a a2g e2g g3|B3 B2A G2A Bcd|
e2a a2g e2f ggg|BcB BAG A3 A3|
e2a a2g e2g g2g|B2 B2A G2A Bcd|
e2f gfe a2f gfe|B3 BAG A3 A3||

